X: 7897
T: Con Cassidy's Highland
R: hornpipe
M: 4/4
K: Adorian
eAAB GA (3Bcd|eAAf g3f|eAAB GABc|dBGB dgfg|
eAAB GA (3Bcd|eAAf g3f|eAAB GABc|dBGB d2(3Bcd||
eaag efgf|ea a2 bged|eaag efge|dBGB d2(3Bcd|
eaag efgf|ea a2 bged|(3efg fa gfga|bge^c dgfg||
eAAB GA (3Bcd|eAfA g3f|eAAB GABc|dBGB dgfg|
eAAB GA (3Bcd|eAfA gAfA|eAAB GABc|dBGB d2(3Bcd||
eaag efgf|ea a2 bged|eaag efge|dBGB d2(3Bcd|
eAfA gAfA|ea a2 bged|(3efg fa g3e|dBGB A4||

